X:190
T:McMahon's Reel 
T:The Banshee 
B:CRE2.273 (RÃÂÃÂÃÂÃÂ­l Mhic MhathÃÂÃÂÃÂÃÂºna)
F:file ID: cre.2/190mcmah
L:1/8
M:C
R:reel
Q:180
K:G
G3D EDEE|DEGB d2Bd|(3efg dB A2GA|BAGE EDD2|
G3D EDB,D|(3EDE GB d2Bd|(3efg dB A2GA|BAGE EDD2:|
eaag egge|dBBA B3d|eBB2 gBB2|eBBA B3d|
eaag egge|dBBA B3d|(3efg dB A2GA|BAGE EDD2:|

%%%

